humanity-icon-theme/Humanity/actions/24/folder-copy.svg

<?xml version="1.0" encoding="UTF-8" standalone="no"?>
<!-- Created with Inkscape (http://www.inkscape.org/) -->
<svg
   xmlns:svg="http://www.w3.org/2000/svg"
   xmlns="http://www.w3.org/2000/svg"
   xmlns:xlink="http://www.w3.org/1999/xlink"
   version="1.0"
   width="24"
   height="24"
   id="svg3299">
  <defs
     id="defs3301">
    <linearGradient
       id="linearGradient8265-821-176-38-919-66-249-311">
      <stop
         id="stop2662"
         style="stop-color:#ffffff;stop-opacity:1"
         offset="0" />
      <stop
         id="stop2664"
         style="stop-color:#ffffff;stop-opacity:0"
         offset="1" />
    </linearGradient>
    <linearGradient
       x1="18.03083"
       y1="16.407909"
       x2="20.054544"
       y2="24.627615"
       id="linearGradient2558-342"
       xlink:href="#linearGradient8265-821-176-38-919-66-249-311"
       gradientUnits="userSpaceOnUse" />
    <linearGradient
       id="linearGradient3390-725">
      <stop
         id="stop2656"
         style="stop-color:#5e5e5e;stop-opacity:1"
         offset="0" />
      <stop
         id="stop2658"
         style="stop-color:#909090;stop-opacity:1"
         offset="1" />
    </linearGradient>
    <linearGradient
       x1="10.318256"
       y1="14.992862"
       x2="4.1760364"
       y2="4.0514131"
       id="linearGradient2556-839"
       xlink:href="#linearGradient3390-725"
       gradientUnits="userSpaceOnUse"
       gradientTransform="matrix(1.0083043,0,0,1.0006232,-10.500284,-26.477671)" />
    <linearGradient
       id="linearGradient7012-661-145-733-759-865-745-340">
      <stop
         id="stop2650"
         style="stop-color:#bababa;stop-opacity:1"
         offset="0" />
      <stop
         id="stop2652"
         style="stop-color:#838383;stop-opacity:1"
         offset="1" />
    </linearGradient>
    <linearGradient
       x1="126.69791"
       y1="58.583481"
       x2="169.22964"
       y2="238.3999"
       id="linearGradient2554-641"
       xlink:href="#linearGradient7012-661-145-733-759-865-745-340"
       gradientUnits="userSpaceOnUse"
       gradientTransform="matrix(5.489342e-2,1.385132e-2,2.57263e-3,5.248166e-2,-11.212261,-26.738461)" />
    <linearGradient
       id="linearGradient5060-925">
      <stop
         id="stop2644"
         style="stop-color:#000000;stop-opacity:1"
         offset="0" />
      <stop
         id="stop2646"
         style="stop-color:#000000;stop-opacity:0"
         offset="1" />
    </linearGradient>
    <radialGradient
       cx="605.71429"
       cy="486.64789"
       r="117.14286"
       fx="605.71429"
       fy="486.64789"
       id="radialGradient2552-332"
       xlink:href="#linearGradient5060-925"
       gradientUnits="userSpaceOnUse"
       gradientTransform="matrix(-2.774389,0,0,1.969706,112.7623,-872.8854)" />
    <linearGradient
       id="linearGradient5060-311">
      <stop
         id="stop2638"
         style="stop-color:#000000;stop-opacity:1"
         offset="0" />
      <stop
         id="stop2640"
         style="stop-color:#000000;stop-opacity:0"
         offset="1" />
    </linearGradient>
    <radialGradient
       cx="605.71429"
       cy="486.64789"
       r="117.14286"
       fx="605.71429"
       fy="486.64789"
       id="radialGradient2550-690"
       xlink:href="#linearGradient5060-311"
       gradientUnits="userSpaceOnUse"
       gradientTransform="matrix(2.774389,0,0,1.969706,-1891.633,-872.8854)" />
    <linearGradient
       id="linearGradient5048-380">
      <stop
         id="stop2630"
         style="stop-color:#000000;stop-opacity:0"
         offset="0" />
      <stop
         id="stop2632"
         style="stop-color:#000000;stop-opacity:1"
         offset="0.5" />
      <stop
         id="stop2634"
         style="stop-color:#000000;stop-opacity:0"
         offset="1" />
    </linearGradient>
    <linearGradient
       x1="302.85715"
       y1="366.64789"
       x2="302.85715"
       y2="609.50507"
       id="linearGradient2548-464"
       xlink:href="#linearGradient5048-380"
       gradientUnits="userSpaceOnUse"
       gradientTransform="matrix(2.774389,0,0,1.969706,-1892.179,-872.8854)" />
    <radialGradient
       cx="605.71429"
       cy="486.64789"
       r="117.14286"
       fx="605.71429"
       fy="486.64789"
       id="radialGradient2574"
       xlink:href="#linearGradient5060"
       gradientUnits="userSpaceOnUse"
       gradientTransform="matrix(-2.774389,0,0,1.969706,112.7623,-872.8854)" />
    <linearGradient
       id="linearGradient5060">
      <stop
         id="stop5062"
         style="stop-color:#000000;stop-opacity:1"
         offset="0" />
      <stop
         id="stop5064"
         style="stop-color:#000000;stop-opacity:0"
         offset="1" />
    </linearGradient>
    <radialGradient
       cx="605.71429"
       cy="486.64789"
       r="117.14286"
       fx="605.71429"
       fy="486.64789"
       id="radialGradient2572"
       xlink:href="#linearGradient5060"
       gradientUnits="userSpaceOnUse"
       gradientTransform="matrix(2.774389,0,0,1.969706,-1891.633,-872.8854)" />
    <linearGradient
       id="linearGradient5048">
      <stop
         id="stop5050"
         style="stop-color:#000000;stop-opacity:0"
         offset="0" />
      <stop
         id="stop5056"
         style="stop-color:#000000;stop-opacity:1"
         offset="0.5" />
      <stop
         id="stop5052"
         style="stop-color:#000000;stop-opacity:0"
         offset="1" />
    </linearGradient>
    <linearGradient
       x1="302.85715"
       y1="366.64789"
       x2="302.85715"
       y2="609.50507"
       id="linearGradient2570"
       xlink:href="#linearGradient5048"
       gradientUnits="userSpaceOnUse"
       gradientTransform="matrix(2.774389,0,0,1.969706,-1892.179,-872.8854)" />
    <linearGradient
       id="linearGradient2603">
      <stop
         id="stop2605"
         style="stop-color:#bb2b12;stop-opacity:1"
         offset="0" />
      <stop
         id="stop2607"
         style="stop-color:#cd7233;stop-opacity:1"
         offset="1" />
    </linearGradient>
    <linearGradient
       x1="10.318256"
       y1="14.992862"
       x2="4.1760364"
       y2="4.0514131"
       id="linearGradient2526"
       xlink:href="#linearGradient2603"
       gradientUnits="userSpaceOnUse"
       gradientTransform="matrix(1.0083043,0,0,1.0006232,-1.856e-3,-6.62e-3)" />
    <linearGradient
       id="linearGradient2610">
      <stop
         id="stop2612"
         style="stop-color:#f0c178;stop-opacity:1"
         offset="0" />
      <stop
         id="stop2614"
         style="stop-color:#e18941;stop-opacity:1"
         offset="0.5" />
      <stop
         id="stop2616"
         style="stop-color:#ec4f18;stop-opacity:1"
         offset="1" />
    </linearGradient>
    <linearGradient
       x1="126.69791"
       y1="58.583481"
       x2="169.22964"
       y2="238.3999"
       id="linearGradient2524"
       xlink:href="#linearGradient2610"
       gradientUnits="userSpaceOnUse"
       gradientTransform="matrix(5.489342e-2,1.385132e-2,2.57263e-3,5.248166e-2,-0.713833,-0.26741)" />
    <linearGradient
       id="linearGradient8265-821-176-38-919-66-249">
      <stop
         id="stop2687"
         style="stop-color:#ffffff;stop-opacity:1"
         offset="0" />
      <stop
         id="stop2689"
         style="stop-color:#ffffff;stop-opacity:0"
         offset="1" />
    </linearGradient>
    <linearGradient
       x1="18.03083"
       y1="16.407909"
       x2="20.054544"
       y2="24.627615"
       id="linearGradient2580"
       xlink:href="#linearGradient8265-821-176-38-919-66-249"
       gradientUnits="userSpaceOnUse" />
  </defs>
  <g
     id="layer1">
    <g
       transform="translate(2.06173e-3,-1.004415)"
       id="g2526">
      <g
         transform="matrix(0.3639508,0,0,0.3445682,-0.6458828,-0.3854516)"
         id="g2528">
        <g
           transform="matrix(2.165152e-2,0,0,1.485743e-2,43.0076,42.68539)"
           id="g2530"
           style="display:inline">
          <rect
             width="1339.6335"
             height="478.35718"
             x="-1559.2523"
             y="-150.69685"
             id="rect2532"
             style="opacity:0.40206185;fill:url(#linearGradient2548-464);fill-opacity:1;fill-rule:nonzero;stroke:none;stroke-width:1;marker:none;visibility:visible;display:inline;overflow:visible" />
          <path
             d="M -219.61876,-150.68038 C -219.61876,-150.68038 -219.61876,327.65041 -219.61876,327.65041 C -76.744594,328.55086 125.78146,220.48075 125.78138,88.454235 C 125.78138,-43.572302 -33.655436,-150.68036 -219.61876,-150.68038 L -219.61876,-150.68038 z"
             id="path2534"
             style="opacity:0.40206185;fill:url(#radialGradient2550-690);fill-opacity:1;fill-rule:nonzero;stroke:none;stroke-width:1;marker:none;visibility:visible;display:inline;overflow:visible" />
          <path
             d="M -1559.2523,-150.68038 C -1559.2523,-150.68038 -1559.2523,327.65041 -1559.2523,327.65041 C -1702.1265,328.55086 -1904.6525,220.48075 -1904.6525,88.454235 C -1904.6525,-43.572302 -1745.2157,-150.68036 -1559.2523,-150.68038 L -1559.2523,-150.68038 z"
             id="path2536"
             style="opacity:0.40206185;fill:url(#radialGradient2552-332);fill-opacity:1;fill-rule:nonzero;stroke:none;stroke-width:1;marker:none;visibility:visible;display:inline;overflow:visible" />
        </g>
      </g>
      <g
         transform="translate(10.498428,26.471051)"
         id="g2538">
        <path
           d="M -8.8386583,-24.977136 C -8.8949163,-24.977136 -8.9431463,-24.916786 -8.9431463,-24.854463 L -8.9431463,-23.791302 L -9.4597683,-23.791302 L -9.8568233,-23.791302 C -9.9270293,-23.791302 -9.9822083,-23.729582 -9.9822083,-23.668629 L -9.9822083,-23.423284 L -9.9822083,-20.581372 C -9.9892983,-18.008402 -10.003106,-14.339122 -10.003106,-11.96967 C -5.2967818,-11.99364 -0.58799882,-12.01793 4.1194082,-12.03519 C 3.7022792,-12.03519 3.0070792,-12.10528 3.0170242,-12.975677 C 3.0205642,-16.572707 3.0399852,-20.218798 3.0278012,-23.791301 L -3.0029958,-23.791301 L -3.0029958,-24.854462 C -3.0029958,-24.916792 -3.0512238,-24.977135 -3.1074828,-24.977135 L -8.8386598,-24.977135 L -8.8386583,-24.977136 z"
           id="path2540"
           style="fill:#ffffff;fill-opacity:1;stroke:#a8a8a8;stroke-width:0.97899997;stroke-linecap:round;stroke-linejoin:round;stroke-miterlimit:4;stroke-dasharray:none;stroke-opacity:1;display:inline" />
        <path
           d="M -7.9740723,-21.947037 C -7.3177083,-21.947037 4.5059697,-21.915647 5.0149287,-21.915647 C 5.0149287,-21.300234 4.9902447,-11.957572 4.9608617,-11.957572 C 0.40201868,-11.939822 -6.6985383,-11.971462 -8.0259523,-11.971462 C -8.0259523,-13.132933 -7.9740723,-19.556791 -7.9740723,-21.947035 L -7.9740723,-21.947037 z"
           id="path2542"
           style="fill:url(#linearGradient2554-641);fill-opacity:1;stroke:url(#linearGradient2556-839);stroke-width:0.95339239;stroke-linecap:round;stroke-linejoin:round;stroke-miterlimit:4;stroke-dasharray:none;stroke-opacity:1;display:inline" />
      </g>
      <path
         d="M 3.21875,5.34375 C 1.6798019,5.34375 0.40625,6.617302 0.40625,8.15625 L 0.40625,24.15625 C 0.412144,24.442483 0.55466957,24.768827 0.78125,24.96875 C 1.0078275,25.168671 1.2974446,25.253022 1.625,25.21875 C 1.635415,25.219016 1.645835,25.219016 1.65625,25.21875 L 46.65625,18.09375 C 47.178023,18.01146 47.586456,17.55942 47.59375,17.03125 L 47.59375,8.15625 C 47.59375,6.617302 46.320198,5.34375 44.78125,5.34375 L 3.21875,5.34375 L 3.21875,5.34375 z"
         transform="matrix(0.2966887,0,0,0.3520695,1.8794702,2.1186294)"
         id="path2544"
         style="opacity:0.2;fill:url(#linearGradient2558-342);fill-opacity:1;fill-rule:evenodd;stroke:none" />
      <path
         d="M 3.497937,14 L 3.497937,5.5 L 14.997937,5.5"
         id="path2546"
         style="opacity:0.35;fill:none;stroke:#ffffff;stroke-width:1px;stroke-linecap:butt;stroke-linejoin:miter;stroke-opacity:1" />
    </g>
    <g
       transform="matrix(0.3639508,0,0,0.3445682,7.3541192,7.6145484)"
       id="g2511">
      <g
         transform="matrix(2.165152e-2,0,0,1.485743e-2,43.0076,42.68539)"
         id="g2488"
         style="display:inline">
        <rect
           width="1339.6335"
           height="478.35718"
           x="-1559.2523"
           y="-150.69685"
           id="rect2490"
           style="opacity:0.40206185;fill:url(#linearGradient2570);fill-opacity:1;fill-rule:nonzero;stroke:none;stroke-width:1;marker:none;visibility:visible;display:inline;overflow:visible" />
        <path
           d="M -219.61876,-150.68038 C -219.61876,-150.68038 -219.61876,327.65041 -219.61876,327.65041 C -76.744594,328.55086 125.78146,220.48075 125.78138,88.454235 C 125.78138,-43.572302 -33.655436,-150.68036 -219.61876,-150.68038 L -219.61876,-150.68038 z"
           id="path2492"
           style="opacity:0.40206185;fill:url(#radialGradient2572);fill-opacity:1;fill-rule:nonzero;stroke:none;stroke-width:1;marker:none;visibility:visible;display:inline;overflow:visible" />
        <path
           d="M -1559.2523,-150.68038 C -1559.2523,-150.68038 -1559.2523,327.65041 -1559.2523,327.65041 C -1702.1265,328.55086 -1904.6525,220.48075 -1904.6525,88.454235 C -1904.6525,-43.572302 -1745.2157,-150.68036 -1559.2523,-150.68038 L -1559.2523,-150.68038 z"
           id="path2494"
           style="opacity:0.40206185;fill:url(#radialGradient2574);fill-opacity:1;fill-rule:nonzero;stroke:none;stroke-width:1;marker:none;visibility:visible;display:inline;overflow:visible" />
      </g>
    </g>
    <path
       d="M 1.6597697,1.493915 C 1.6035117,1.493915 1.5552817,1.554265 1.5552817,1.616588 L 1.5552817,2.679749 L 1.0386597,2.679749 L 0.6416047,2.679749 C 0.5713987,2.679749 0.5162197,2.741469 0.5162197,2.802422 L 0.5162197,3.047767 L 0.5162197,5.889679 C 0.5091297,8.462649 0.495322,12.131929 0.495322,14.501381 C 5.2016462,14.477411 9.9104292,14.453121 14.617836,14.435861 C 14.200707,14.435861 13.505507,14.365771 13.515452,13.495374 C 13.518992,9.898344 13.538413,6.252253 13.526229,2.67975 L 7.4954322,2.67975 L 7.4954322,1.616589 C 7.4954322,1.554259 7.4472042,1.493916 7.3909452,1.493916 L 1.6597682,1.493916 L 1.6597697,1.493915 z"
       transform="translate(8.000002,8)"
       id="path2519"
       style="fill:#ffffff;fill-opacity:1;stroke:#a8a8a8;stroke-width:0.97899997;stroke-linecap:round;stroke-linejoin:round;stroke-miterlimit:4;stroke-dasharray:none;stroke-opacity:1;display:inline" />
    <path
       d="M 2.5243557,4.524014 C 3.1807197,4.524014 15.004398,4.555404 15.513357,4.555404 C 15.513357,5.170817 15.488673,14.513479 15.45929,14.513479 C 10.900447,14.531229 3.7998897,14.499589 2.4724757,14.499589 C 2.4724757,13.338118 2.5243557,6.91426 2.5243557,4.524016 L 2.5243557,4.524014 z"
       transform="translate(8.000002,8)"
       id="path2521"
       style="fill:url(#linearGradient2524);fill-opacity:1;stroke:url(#linearGradient2526);stroke-width:0.95339239;stroke-linecap:round;stroke-linejoin:round;stroke-miterlimit:4;stroke-dasharray:none;stroke-opacity:1;display:inline" />
    <path
       d="M 3.21875,5.34375 C 1.6798019,5.34375 0.40625,6.617302 0.40625,8.15625 L 0.40625,24.15625 C 0.412144,24.442483 0.55466957,24.768827 0.78125,24.96875 C 1.0078275,25.168671 1.2974446,25.253022 1.625,25.21875 C 1.635415,25.219016 1.645835,25.219016 1.65625,25.21875 L 46.65625,18.09375 C 47.178023,18.01146 47.586456,17.55942 47.59375,17.03125 L 47.59375,8.15625 C 47.59375,6.617302 46.320198,5.34375 44.78125,5.34375 L 3.21875,5.34375 L 3.21875,5.34375 z"
       transform="matrix(0.2966887,0,0,0.3520695,9.8794722,10.118629)"
       id="path2608"
       style="opacity:0.2;fill:url(#linearGradient2580);fill-opacity:1;fill-rule:evenodd;stroke:none" />
    <path
       d="M 3.497937,14 L 3.497937,5.5 L 14.997937,5.5"
       transform="translate(8.000002,8)"
       id="path2524"
       style="opacity:0.35;fill:none;stroke:#ffffff;stroke-width:1px;stroke-linecap:butt;stroke-linejoin:miter;stroke-opacity:1" />
  </g>
</svg>

<?xml version="1.0" encoding="UTF-8" standalone="no"?>
<!-- Created with Inkscape (http://www.inkscape.org/) -->
<svg id="svg3299" xmlns="http://www.w3.org/2000/svg" height="24" width="24" version="1.0" xmlns:xlink="http://www.w3.org/1999/xlink">
 <defs id="defs3301">
  <linearGradient id="linearGradient2558-342" y2="24.628" gradientUnits="userSpaceOnUse" x2="20.055" y1="16.408" x1="18.031">
   <stop id="stop2662" style="stop-color:#fff" offset="0"/>
   <stop id="stop2664" style="stop-color:#fff;stop-opacity:0" offset="1"/>
  </linearGradient>
  <linearGradient id="linearGradient2556-839" y2="4.0514" gradientUnits="userSpaceOnUse" x2="4.176" gradientTransform="matrix(1.0083 0 0 1.0006 -10.5 -26.478)" y1="14.993" x1="10.318">
   <stop id="stop2656" style="stop-color:#5e5e5e" offset="0"/>
   <stop id="stop2658" style="stop-color:#909090" offset="1"/>
  </linearGradient>
  <linearGradient id="linearGradient2554-641" y2="238.4" gradientUnits="userSpaceOnUse" x2="169.23" gradientTransform="matrix(.054893 .013851 .0025726 .052482 -11.212 -26.738)" y1="58.583" x1="126.7">
   <stop id="stop2650" style="stop-color:#bababa" offset="0"/>
   <stop id="stop2652" style="stop-color:#838383" offset="1"/>
  </linearGradient>
  <radialGradient id="radialGradient2552-332" gradientUnits="userSpaceOnUse" cy="486.65" cx="605.71" gradientTransform="matrix(-2.7744 0 0 1.9697 112.76 -872.89)" r="117.14">
   <stop id="stop2644" offset="0"/>
   <stop id="stop2646" style="stop-opacity:0" offset="1"/>
  </radialGradient>
  <radialGradient id="radialGradient2550-690" gradientUnits="userSpaceOnUse" cy="486.65" cx="605.71" gradientTransform="matrix(2.7744 0 0 1.9697 -1891.6 -872.89)" r="117.14">
   <stop id="stop2638" offset="0"/>
   <stop id="stop2640" style="stop-opacity:0" offset="1"/>
  </radialGradient>
  <linearGradient id="linearGradient2548-464" y2="609.51" gradientUnits="userSpaceOnUse" x2="302.86" gradientTransform="matrix(2.7744 0 0 1.9697 -1892.2 -872.89)" y1="366.65" x1="302.86">
   <stop id="stop2630" style="stop-opacity:0" offset="0"/>
   <stop id="stop2632" offset=".5"/>
   <stop id="stop2634" style="stop-opacity:0" offset="1"/>
  </linearGradient>
  <radialGradient id="radialGradient2574" xlink:href="#linearGradient5060" gradientUnits="userSpaceOnUse" cy="486.65" cx="605.71" gradientTransform="matrix(-2.7744 0 0 1.9697 112.76 -872.89)" r="117.14"/>
  <linearGradient id="linearGradient5060">
   <stop id="stop5062" offset="0"/>
   <stop id="stop5064" style="stop-opacity:0" offset="1"/>
  </linearGradient>
  <radialGradient id="radialGradient2572" xlink:href="#linearGradient5060" gradientUnits="userSpaceOnUse" cy="486.65" cx="605.71" gradientTransform="matrix(2.7744 0 0 1.9697 -1891.6 -872.89)" r="117.14"/>
  <linearGradient id="linearGradient2526" y2="4.0514" gradientUnits="userSpaceOnUse" x2="4.176" gradientTransform="matrix(1.0083 0 0 1.0006 -.001856 -.00662)" y1="14.993" x1="10.318">
   <stop id="stop2605" style="stop-color:#bb2b12" offset="0"/>
   <stop id="stop2607" style="stop-color:#cd7233" offset="1"/>
  </linearGradient>
  <linearGradient id="linearGradient2524" y2="238.4" gradientUnits="userSpaceOnUse" x2="169.23" gradientTransform="matrix(.054893 .013851 .0025726 .052482 -.71383 -.26741)" y1="58.583" x1="126.7">
   <stop id="stop2612" style="stop-color:#f0c178" offset="0"/>
   <stop id="stop2614" style="stop-color:#e18941" offset=".5"/>
   <stop id="stop2616" style="stop-color:#ec4f18" offset="1"/>
  </linearGradient>
 </defs>
 <g id="layer1">
  <g id="g2526" transform="translate(.0020617 -1.0044)">
   <g id="g2528" transform="matrix(.36395 0 0 .34457 -.64588 -.38545)">
    <g id="g2530" transform="matrix(.021652 0 0 .014857 43.008 42.685)">
     <rect id="rect2532" style="opacity:.40206;fill:url(#linearGradient2548-464)" height="478.36" width="1339.6" y="-150.7" x="-1559.3"/>
     <path id="path2534" style="opacity:.40206;fill:url(#radialGradient2550-690)" d="m-219.62-150.68v478.33c142.88 0.9 345.4-107.17 345.4-239.2 0-132.02-159.44-239.13-345.4-239.13z"/>
     <path id="path2536" style="opacity:.40206;fill:url(#radialGradient2552-332)" d="m-1559.3-150.68v478.33c-142.8 0.9-345.4-107.17-345.4-239.2 0-132.02 159.5-239.13 345.4-239.13z"/>
    </g>
   </g>
   <g id="g2538" transform="translate(10.498 26.471)">
    <path id="path2540" style="stroke-linejoin:round;stroke:#a8a8a8;stroke-linecap:round;stroke-width:0.979;fill:#fff" d="m-8.8387-24.977c-0.0562 0-0.1044 0.06-0.1044 0.123v1.063h-0.5167-0.397c-0.0702 0-0.1254 0.061-0.1254 0.122v0.246 2.842c-0.0071 2.573-0.0208 6.242-0.0208 8.611 4.7062-0.024 9.415-0.048 14.122-0.065-0.4167 0-1.1119-0.07-1.102-0.941 0.0036-3.597 0.023-7.243 0.0108-10.815h-6.0308v-1.063c0-0.063-0.0482-0.123-0.1045-0.123h-5.7312z"/>
    <path id="path2542" style="stroke-linejoin:round;stroke:url(#linearGradient2556-839);stroke-linecap:round;stroke-width:.95339;fill:url(#linearGradient2554-641)" d="m-7.9741-21.947c0.6564 0 12.48 0.031 12.989 0.031 0 0.616-0.0247 9.958-0.054 9.958-4.5589 0.018-11.659-0.013-12.987-0.013 0.0001-1.162 0.052-7.586 0.052-9.976z"/>
   </g>
   <path id="path2544" style="opacity:.2;fill:url(#linearGradient2558-342);fill-rule:evenodd" d="m3.2188 5.3438c-1.539 0-2.8126 1.2735-2.8126 2.8124l0.00005 16c0.00589 0.286 0.14842 0.613 0.375 0.813 0.22655 0.2 0.51615 0.284 0.84375 0.25h0.0312l45-7.125c0.522-0.083 0.93-0.535 0.938-1.063v-8.8748c0-1.5389-1.274-2.8124-2.813-2.8124h-41.562-0.0002z" transform="matrix(.29669 0 0 .35207 1.8795 2.1186)"/>
   <path id="path2546" style="opacity:.35;stroke:#fff;stroke-width:1px;fill:none" d="m3.4979 14v-8.5h11.5"/>
  </g>
  <g id="g2511" transform="matrix(.36395 0 0 .34457 7.3541 7.6145)">
   <g id="g2488" transform="matrix(.021652 0 0 .014857 43.008 42.685)">
    <rect id="rect2490" style="opacity:.40206;fill:url(#linearGradient2548-464)" height="478.36" width="1339.6" y="-150.7" x="-1559.3"/>
    <path id="path2492" style="opacity:.40206;fill:url(#radialGradient2572)" d="m-219.62-150.68v478.33c142.88 0.9 345.4-107.17 345.4-239.2 0-132.02-159.44-239.13-345.4-239.13z"/>
    <path id="path2494" style="opacity:.40206;fill:url(#radialGradient2574)" d="m-1559.3-150.68v478.33c-142.8 0.9-345.4-107.17-345.4-239.2 0-132.02 159.5-239.13 345.4-239.13z"/>
   </g>
  </g>
  <path id="path2519" style="stroke-linejoin:round;stroke:#a8a8a8;stroke-linecap:round;stroke-width:0.979;fill:#fff" d="m1.6598 1.4939c-0.0563 0-0.1045 0.0604-0.1045 0.1227v1.0631h-0.5166-0.3971c-0.0702 0-0.12538 0.0618-0.12538 0.1227v0.2454 2.8419c-0.00709 2.5729-0.0209 6.2423-0.0209 8.6113 4.7063-0.024 9.4151-0.048 14.123-0.065-0.417 0-1.112-0.07-1.103-0.941 0.004-3.5967 0.023-7.2427 0.011-10.815l-6.0306-0.0002v-1.0632c0-0.0623-0.0482-0.1227-0.1045-0.1227h-5.7311z" transform="translate(8 8)"/>
  <path id="path2521" style="stroke-linejoin:round;stroke:url(#linearGradient2526);stroke-linecap:round;stroke-width:.95339;fill:url(#linearGradient2524)" d="m2.5244 4.524c0.6563 0 12.48 0.0314 12.989 0.0314 0 0.6154-0.024 9.9576-0.054 9.9576-4.559 0.018-11.659-0.013-12.986-0.013-0.0005-1.162 0.0514-7.5857 0.0514-9.976z" transform="translate(8 8)"/>
  <path id="path2608" style="opacity:.2;fill-rule:evenodd;fill:url(#linearGradient2558-342)" d="m3.2188 5.3438c-1.539 0-2.8126 1.2735-2.8126 2.8124l0.00005 16c0.00589 0.286 0.14842 0.613 0.375 0.813 0.22655 0.2 0.51615 0.284 0.84375 0.25h0.0312l45-7.125c0.522-0.083 0.93-0.535 0.938-1.063v-8.8748c0-1.5389-1.274-2.8124-2.813-2.8124h-41.562-0.0002z" transform="matrix(.29669 0 0 .35207 9.8795 10.119)"/>
  <path id="path2524" style="opacity:.35;stroke:#fff;stroke-width:1px;fill:none" d="m3.4979 14v-8.5h11.5" transform="translate(8 8)"/>
 </g>
</svg>
